!!!COM: Haydn, Franz Joseph
!!!OTL: String Quartet in D major
!!!OPS: Opus 1
!!!ONM: No. 3
!!!OMD: Menuetto II
!!!OMV: 4
!!!SCT: H III:3
!!!SCA: Thematisch-bibliographisches Werkevererzeichnis (A. van Hoboken)
!!!YOR: Bremner Edition, 1772
!!!ENC: Frances Bennion
!!!CDT: 1732/3/31/-1809/5/31/
!!!CNT: Oesterreich
!!!YEC: Copyright (c) 1994, 2000 Center for Computer Assisted Research in the Humanities
!!!YEM: Rights to all derivative editions reserved.
!!!YEM: Refer to licensing agreement for further details.
!!!YEN: United States of America
**kern	**kern	**kern	**kern
*k[f#c#]	*k[f#c#]	*k[f#c#]	*k[f#c#]
*D:	*D:	*D:	*D:
*clefF4	*clefC3	*clefF	*clefF
*M3/4	*M3/4	*M3/4	*M3/4
4D	4d	2d	2dd
4E	4e	.	.
4F#	4f#	4c#	4cc#
=2	=2	=2	=2
4G	4g	2B	2b
4GG	4G	.	.
4F#	4f#	4A	4a
=3	=3	=3	=3
4G	4g	4.B	4.b
4E	4e	.	.
.	.	8e	8ee
4A	4a	4c#	4cc#
=4	=4	=4	=4
4F#	4f#	8d	8dd
.	.	8e	8ee
4D	4d	8f#	8ff#
.	.	8g	8gg
4r	4r	8a	8aa
.	.	8a#	8aa#
=5	=5	=5	=5
4GG	4G	2b	2bb
4G	4g	.	.
4F#	4f#	4a	4aa
=6	=6	=6	=6
4r	4r	2g	2gg
4E	4c#	.	.
4D	4d	4f#	4ff#
=7	=7	=7	=7
4G	4g	4.e	4.ee
4E	4e	.	.
.	.	8f#	8ff#
4A	4a	4c#	4cc#
=8	=8	=8	=8
4D	4d	2d	2dd
4AA	4A	.	.
4DD	4D	4r	4r
=9	=9	=9	=9
4r	4r	2A	2a
4F	4f	.	.
4G	4g	4B-	4b-
=10	=10	=10	=10
4F	4f	4A	4a
4E	4e	4c#	4cc#
4D	4d	4d	4dd
=11	=11	=11	=11
4r	4r	2A	2a
4A	4a	.	.
4G	4g	4c#	4cc#
=12	=12	=12	=12
4F	4f	4d	4dd
4E	4e	4e	4ee
4D	4d	4f	4ff
=13	=13	=13	=13
4r	4r	4.g	4.gg
4B-	4b-	.	.
.	.	8a	8aa
4A	4a	4f	4ff
=14	=14	=14	=14
4r	4r	4.e	4.ee
4G	4g	.	.
.	.	8f	8ff
4F	4f	4d	4dd
=15	=15	=15	=15
4E	4e	4c#	4cc#
4E	4e	4c#	4cc#
4D	4d	8d	8dd
.	.	16c#	16cc#
.	.	16d	16dd
=16	=16	=16	=16
4AA	4A	4e	4ee
4A	4a	2r	2r
4AA	4A	.	.
=17	=17	=17	=17
4D	4d	2d	2dd
4E	4e	.	.
4F#	4f#	4c#	4cc#
=18	=18	=18	=18
4G	4g	2B	2b
4GG	4G	.	.
4F#	4f#	4A	4a
=19	=19	=19	=19
4G	4g	4.B	4.b
4E	4e	.	.
.	.	8e	8ee
4A	4a	4c#	4cc#
=20	=20	=20	=20
4F#	4f#	8d	8dd
.	.	8e	8ee
4D	4d	8f#	8ff#
.	.	8g	8gg
4r	4r	8a	8aa
.	.	8a#	8aa#
=21	=21	=21	=21
4r	4r	2b	2bb
4G	4g	.	.
4F#	4f#	4a	4aa
=22	=22	=22	=22
4r	4r	2g	2gg
4E	4e	.	.
4D	4d	4f#	4ff#
=23	=23	=23	=23
4G	4g	2b	2bb
4E	4e	.	.
4A	4a	4cc#	4ccc#
=24	=24	=24	=24
4F#	4f#	2dd	2ddd
4E	4e	.	.
4D	4d	4f#	4ff#
=25	=25	=25	=25
4G	4g	8e	8ee
.	.	8f#	8ff#
4r	4r	8g	8gg
.	.	8a	8aa
4E	4e	8a#	8aa#
.	.	8b	8bb
=26	=26	=26	=26
4A	4a	2c#	2cc#
4G	4g	.	.
4F#	4f#	4d	4dd
=27	=27	=27	=27
4G	4g	4.e	4.ee
4E	4e	.	.
.	.	8f#	8ff#
4A	4a	4c#	4cc#
=28	=28	=28	=28
4D	4d	4d	4dd
4AA	4A	2r	2r
4DD	4D	.	.
=29	=29	=29	=29
4D	2.d	8r	2.dd
.	.	8a	.
2r	.	8g	.
.	.	8f	.
.	.	8e	.
.	.	8d	.
=30	=30	=30	=30
8r	2.e	4c#	2.ee
8B-	.	.	.
8A	.	2r	.
8G	.	.	.
8F	.	.	.
8E	.	.	.
=31	=31	=31	=31
4D	2.f	8r	2.ff
.	.	8a	.
2r	.	8g	.
.	.	8f	.
.	.	8e	.
.	.	8d	.
=32	=32	=32	=32
8r	2.g	4b-	2.gg
8G	.	.	.
8F	.	2r	.
8E	.	.	.
8D	.	.	.
8C	.	.	.
=33	=33	=33	=33
4F	2.a	8r	2.aa
.	.	8cc	.
2r	.	8b-	.
.	.	8a	.
.	.	8g	.
.	.	8f	.
=34	=34	=34	=34
8r	2.b-	4dd	2.bb-
8B-	.	.	.
8A	.	4r	.
8G	.	.	.
8F	.	4gg	.
8E	.	.	.
=35	=35	=35	=35
8F	4a	4ff	4aa
8A	.	.	.
8c	4A	4f	4a
8B-	.	.	.
8c	4G	4e	4g
8C	.	.	.
=36	=36	=36	=36
8F	2F	2f	2f
8G	.	.	.
8A	.	.	.
8G	.	.	.
8F	4r	4r	4r
8E	.	.	.
=37	=37	=37	=37
4F	2.f	8r	2.ff
.	.	8f	.
2r	.	8a	.
.	.	8g	.
.	.	8a	.
.	.	8b-	.
=38	=38	=38	=38
8r	2.e-	4cc	2.ee-
8F	.	.	.
8G	.	2r	.
8F	.	.	.
8G	.	.	.
8A	.	.	.
=39	=39	=39	=39
4B-	2.d	8r	2.dd
.	.	8B-	.
2r	.	8d	.
.	.	8c	.
.	.	8d	.
.	.	8e	.
=40	=40	=40	=40
8r	2.c	4f	2.cc
8A	.	.	.
8F#	.	2r	.
8D	.	.	.
8E	.	.	.
8F#	.	.	.
=41	=41	=41	=41
4G	2.B-	8r	2.b-
.	.	8G	.
2r	.	8g	.
.	.	8c	.
.	.	8d	.
.	.	8e	.
=42	=42	=42	=42
8r	2.A	2.f	2.a
8F	.	.	.
8A	.	.	.
8d	.	.	.
8d	.	.	.
8c	.	.	.
=43	=43	=43	=43
8B-	2G	2f	2g
8A	.	.	.
8B-	.	.	.
8G	.	.	.
8c	4E	4e	4e
8C	.	.	.
=44	=44	=44	=44
8F	4F	4f	4f
8G	.	.	.
8A	2r	2r	2r
8G	.	.	.
8F	.	.	.
8E	.	.	.
=45	=45	=45	=45
8D	2.F#	2.r	2.f#
8E-	.	.	.
8D	.	.	.
8C	.	.	.
8BB-	.	.	.
8AA	.	.	.
=46	=46	=46	=46
4GG	2.G	8r	2.g
.	.	8dd	.
2r	.	8dd	.
.	.	8cc	.
.	.	8b-	.
.	.	8a	.
=47	=47	=47	=47
8r	2.G#	4g#	2.g#
8F	.	.	.
8E	.	2r	.
8D	.	.	.
8C#	.	.	.
8BB	.	.	.
=48	=48	=48	=48
4AA	2.A	8r	2.a
.	.	8ee	.
2r	.	8dd	.
.	.	8cc#	.
.	.	8b	.
.	.	8a	.
=49	=49	=49	=49
8r	2B-	4gg	2b-
8G	.	.	.
8F	.	4r	.
8E	.	.	.
8D	4b-	4bb-	4bb-
8C#	.	.	.
=50	=50	=50	=50
8D	4a	4aa	4aa
8F	.	.	.
8E	4c#	4cc#	4cc#
8G	.	.	.
8F	4d	4dd	4dd
8D	.	.	.
=51	=51	=51	=51
8G	4B-	4b-	4b-
8E	.	.	.
8A	4A	4a	4a
8G	.	.	.
8A	4C#	4c#	4c#
8AA	.	.	.
=52	=52	=52	=52
4D	4D	4d	4d
4AA	2r	2r	2r
4DD	.	.	.
==	==	==	==
*-	*-	*-	*-
!!!RWG1: This file contains only pitch and duration data.
!!!RWG2: Transposing instruments are not transposed.
!!!RWG3: Spines may have incompatible meters.
!!!RWG4: Durations of rests and tied notes may be interpreted.
!!!RWG: Key is interpreted using the Humdrum key tool.
!!!GTL: 10 Divertimentos
!!!AFT: stage1
!!!END: 1997/04/15
!!!KEY: 3727356583
!!!EMD: Converted from MuseData to Humdrum Dec 16, 2000, by Andreas Kornstaedt using muse2kern.
!!!EMD: Manual editing by Craig Sapp, Nov 2001
